X: 970
T: Hasret Odu Yaktı Ciğerim
C: Tanburî Ali Efendi
O: Turkey
F: http://compmusic.upf.edu/node/140
N: hicaz--sarki--agir_aksaksemai--hasret_odu--tanburi_ali_efendi
N: makam= hicaz
N: form= sarki
N: usul= agir_aksaksemai = 10/4
M: 10/4
L: 1/16
K: C _7/8B ^f ^c 
Q: 1/4=54
%%MIDI tuningsystem comma53
G2A6 e3d cBcd efg=f edcB c2d2 cBBA A8  | 
w:  Has *  ret  *  *  *  *  *  *  *  *  *  *  *  *  *  o du  yak  | 
dcde f3/2e/fg agfe fgfe dcde fgag gffe e8 z4  | 
w:  tı  *  *  *  *  *  *  *  *  *  *  *  *  *  *  *  *  *  *  *  *  *  *  *  ci *  ğe *  rim   | 
g2e2 f2d2 efge f4 z2ef gagf a2gf g2fe e4 agfe  | 
w:  ey  *  *  *  *  *  *  *  *  ey  *  *  *  *  *  rûh_ i  *  â  | 
d4 z2cd e=fed cdcB Ag^fe d3/2c/B2 c2d2 c3/2B/Ac B8  | 
w:  *  lim  *  *  *  *  *  *  *  *  *  *  *  *  *  *  *  *  a  ca nım    | 
G2A4d2 d2=c_1/4B B^cde ed=cB A2GF G2A=B BAGF G3/2F/E6  | 
w:  Bir  *  *  ker *  *  *  *  *  *  *  *  *  *  *  *  *  re  be *  nim   | 
FGFE F2G2 A2B6 z2d2 (3d=cded dcc_1/4B B8 z4  | 
w:  ha  *  *  *  *  *  *  *  ha li *  *  *  *  *  *  mi  *  sor  | 
c2d2 cdef ag=fe d2c2 z2Bc dedc cBBA AcBA A4 BABc  | 
w:  maz  *  *  *  *  *  *  *  *  *  *  *  maz *  *  *  *  *  sın  *  a  *  za  | 
cBBA G4 z2FG ABcd efg=f edcB c2d2 cBBA A8  | 
w:  lim  *  *  *  *  ah  *  *  *  *  *  *  *  *  *  *  *  *  *  a  za lim    | 
=f6a2 a6^f2 g2a2 _1/4b2ag agf^e f8 z4  | \
w:  Gün *  den  *  *  *  *  *  *  gü *  ne  *  ef  | 
dedc d2e2 d2ef g6fe f3e a2^g^1/4f efg4fe e4  | 
w:  zûn  *  *  *  *  *  *  *  *  *  *  *  *  *  o lu *  yor   | 
g2e2 f2d2 efge f4 z2ef gagf a2gf g2fe e4 ag=fe  | 
w:  dil  *  *  *  *  *  *  *  *  dil *  *  *  *  *  de  me *  lâ  | 
d4 z2cd e=fed cdcB Ag^fe d3/2c/B2 c2d2 c3/2B/Ac B8  | 
w:  *  lim  *  *  *  *  *  *  *  *  *  *  *  *  *  *  *  *  a  ca nım    | 
G2A4d2 d2=c_1/4B B^cde ed=cB A2GF G2A=B BAGF G3/2F/E6  | 
w:  Bir  *  *  ker *  *  *  *  *  *  *  *  *  *  *  *  *  re  be *  nim   | 
FGFE F2G2 A2B6 z2d2 (3d=cded dcc_1/4B B8 z4  | 
w:  ha  *  *  *  *  *  *  *  ha li *  *  *  *  *  *  mi  *  sor  | 
c2d2 cdef ag=fe d2c2 z2Bc dedc cBBA AcBA A4 BABc  | 
w:  maz  *  *  *  *  *  *  *  *  *  *  *  maz *  *  *  *  *  sın  *  a  *  za  | 
cBBA G4 z2FG ABcd efg=f edcB c2d2 cBBA A8  | 
w:  lim  *  *  *  *  ah  *  *  *  *  *  *  *  *  *  *  *  *  *  a  za lim    | 
|


